X: 20412
T: Duncans Dance
%R: jig
B: James Oswald "The Caledonian Pocket Companion" v.2 p.41 #2
Z: 2019 John Chambers <jc:trillian.mit.edu>
M: 6/8
L: 1/8
K: G
|: "_Brisk"\
Bcd g3 | Bcd g3 | Bcd efg | aAA A3 |\
Bcd g3 | Bcd g3 | dcB ABc | BGG G3 :|
|:\
BAB GEE | GEE GEE | BAB GEE | FDD D3 |\
BAB GEE | FAG FED | g3  dAc | BGG G3 :|


